bernoullicharts/2014_add_x_0_1_bound.svg

<?xml version="1.0" encoding="utf-8" standalone="no"?>
<!DOCTYPE svg PUBLIC "-//W3C//DTD SVG 1.1//EN"
  "http://www.w3.org/Graphics/SVG/1.1/DTD/svg11.dtd">
<!-- Created with matplotlib (https://matplotlib.org/) -->
<svg height="345.6pt" version="1.1" viewBox="0 0 460.8 345.6" width="460.8pt" xmlns="http://www.w3.org/2000/svg" xmlns:xlink="http://www.w3.org/1999/xlink">
 <defs>
  <style type="text/css">
*{stroke-linecap:butt;stroke-linejoin:round;}
  </style>
 </defs>
 <g id="figure_1">
  <g id="patch_1">
   <path d="M 0 345.6 
L 460.8 345.6 
L 460.8 0 
L 0 0 
z
" style="fill:#ffffff;"/>
  </g>
  <g id="axes_1">
   <g id="patch_2">
    <path d="M 57.6 307.584 
L 414.72 307.584 
L 414.72 41.472 
L 57.6 41.472 
z
" style="fill:#ffffff;"/>
   </g>
   <g id="matplotlib.axis_1">
    <g id="xtick_1">
     <g id="line2d_1">
      <defs>
       <path d="M 0 0 
L 0 3.5 
" id="m381461ad0d" style="stroke:#000000;stroke-width:0.8;"/>
      </defs>
      <g>
       <use style="stroke:#000000;stroke-width:0.8;" x="73.796607" xlink:href="#m381461ad0d" y="307.584"/>
      </g>
     </g>
     <g id="text_1">
      <text style="font-family:DejaVu Sans;font-size:10px;font-style:normal;font-weight:normal;text-anchor:middle;" transform="rotate(-0, 73.796607, 322.182437)" x="73.796607" y="322.182437">0.0</text>
     </g>
    </g>
    <g id="xtick_2">
     <g id="line2d_2">
      <g>
       <use style="stroke:#000000;stroke-width:0.8;" x="146.037572" xlink:href="#m381461ad0d" y="307.584"/>
      </g>
     </g>
     <g id="text_2">
      <text style="font-family:DejaVu Sans;font-size:10px;font-style:normal;font-weight:normal;text-anchor:middle;" transform="rotate(-0, 146.037572, 322.182437)" x="146.037572" y="322.182437">0.2</text>
     </g>
    </g>
    <g id="xtick_3">
     <g id="line2d_3">
      <g>
       <use style="stroke:#000000;stroke-width:0.8;" x="218.278537" xlink:href="#m381461ad0d" y="307.584"/>
      </g>
     </g>
     <g id="text_3">
      <text style="font-family:DejaVu Sans;font-size:10px;font-style:normal;font-weight:normal;text-anchor:middle;" transform="rotate(-0, 218.278537, 322.182437)" x="218.278537" y="322.182437">0.4</text>
     </g>
    </g>
    <g id="xtick_4">
     <g id="line2d_4">
      <g>
       <use style="stroke:#000000;stroke-width:0.8;" x="290.519502" xlink:href="#m381461ad0d" y="307.584"/>
      </g>
     </g>
     <g id="text_4">
      <text style="font-family:DejaVu Sans;font-size:10px;font-style:normal;font-weight:normal;text-anchor:middle;" transform="rotate(-0, 290.519502, 322.182437)" x="290.519502" y="322.182437">0.6</text>
     </g>
    </g>
    <g id="xtick_5">
     <g id="line2d_5">
      <g>
       <use style="stroke:#000000;stroke-width:0.8;" x="362.760467" xlink:href="#m381461ad0d" y="307.584"/>
      </g>
     </g>
     <g id="text_5">
      <text style="font-family:DejaVu Sans;font-size:10px;font-style:normal;font-weight:normal;text-anchor:middle;" transform="rotate(-0, 362.760467, 322.182437)" x="362.760467" y="322.182437">0.8</text>
     </g>
    </g>
    <g id="text_6">
     <text style="font-family:DejaVu Sans;font-size:10px;font-style:normal;font-weight:normal;text-anchor:middle;" transform="rotate(-0, 236.16, 335.860562)" x="236.16" y="335.860562">Input Coin's Heads Probability (λ)</text>
    </g>
   </g>
   <g id="matplotlib.axis_2">
    <g id="ytick_1">
     <g id="line2d_6">
      <defs>
       <path d="M 0 0 
L -3.5 0 
" id="m06574b2284" style="stroke:#000000;stroke-width:0.8;"/>
      </defs>
      <g>
       <use style="stroke:#000000;stroke-width:0.8;" x="57.6" xlink:href="#m06574b2284" y="295.490952"/>
      </g>
     </g>
     <g id="text_7">
      <text style="font-family:DejaVu Sans;font-size:10px;font-style:normal;font-weight:normal;text-anchor:end;" transform="rotate(-0, 50.6, 299.290171)" x="50.6" y="299.290171">0</text>
     </g>
    </g>
    <g id="ytick_2">
     <g id="line2d_7">
      <g>
       <use style="stroke:#000000;stroke-width:0.8;" x="57.6" xlink:href="#m06574b2284" y="242.295352"/>
      </g>
     </g>
     <g id="text_8">
      <text style="font-family:DejaVu Sans;font-size:10px;font-style:normal;font-weight:normal;text-anchor:end;" transform="rotate(-0, 50.6, 246.094571)" x="50.6" y="246.094571">20</text>
     </g>
    </g>
    <g id="ytick_3">
     <g id="line2d_8">
      <g>
       <use style="stroke:#000000;stroke-width:0.8;" x="57.6" xlink:href="#m06574b2284" y="189.099751"/>
      </g>
     </g>
     <g id="text_9">
      <text style="font-family:DejaVu Sans;font-size:10px;font-style:normal;font-weight:normal;text-anchor:end;" transform="rotate(-0, 50.6, 192.89897)" x="50.6" y="192.89897">40</text>
     </g>
    </g>
    <g id="ytick_4">
     <g id="line2d_9">
      <g>
       <use style="stroke:#000000;stroke-width:0.8;" x="57.6" xlink:href="#m06574b2284" y="135.904151"/>
      </g>
     </g>
     <g id="text_10">
      <text style="font-family:DejaVu Sans;font-size:10px;font-style:normal;font-weight:normal;text-anchor:end;" transform="rotate(-0, 50.6, 139.703369)" x="50.6" y="139.703369">60</text>
     </g>
    </g>
    <g id="ytick_5">
     <g id="line2d_10">
      <g>
       <use style="stroke:#000000;stroke-width:0.8;" x="57.6" xlink:href="#m06574b2284" y="82.70855"/>
      </g>
     </g>
     <g id="text_11">
      <text style="font-family:DejaVu Sans;font-size:10px;font-style:normal;font-weight:normal;text-anchor:end;" transform="rotate(-0, 50.6, 86.507769)" x="50.6" y="86.507769">80</text>
     </g>
    </g>
    <g id="text_12">
     <text style="font-family:DejaVu Sans;font-size:10px;font-style:normal;font-weight:normal;text-anchor:middle;" transform="rotate(-90, 31.795312, 174.528)" x="31.795312" y="174.528">Coin Flips Needed</text>
    </g>
   </g>
   <g id="line2d_11">
    <path clip-path="url(#p2d025047dc)" d="M 73.832727 295.488 
L 77.480531 295.217123 
L 81.128335 294.99115 
L 84.776139 294.799629 
L 88.423943 294.635113 
L 92.071747 294.492151 
L 95.719551 294.366662 
L 99.367354 294.255531 
L 103.015158 294.156334 
L 106.662962 294.067163 
L 110.310766 293.986489 
L 113.95857 293.913078 
L 117.606374 293.845917 
L 121.254178 293.784172 
L 124.901982 293.727146 
L 128.549785 293.674254 
L 132.197589 293.624999 
L 135.845393 293.578957 
L 139.493197 293.535766 
L 143.141001 293.495112 
L 146.788805 293.45672 
L 150.436609 293.420351 
L 154.084413 293.385797 
L 157.732217 293.35287 
L 161.38002 293.321406 
L 165.027824 293.291257 
L 168.675628 293.262291 
L 172.323432 293.234388 
L 175.971236 293.20744 
L 179.61904 293.181349 
L 183.266844 293.156023 
L 186.914648 293.131379 
L 190.562451 293.107341 
L 194.210255 293.083835 
L 197.858059 293.060794 
L 201.505863 293.038155 
L 205.153667 293.015856 
L 208.801471 292.99384 
L 212.449275 292.97205 
L 216.097079 292.950432 
L 219.744883 292.928932 
L 223.392686 292.907498 
L 227.04049 292.886077 
L 230.688294 292.864617 
L 234.336098 292.843064 
L 237.983902 292.821364 
L 241.631706 292.799462 
L 245.27951 292.777299 
L 248.927314 292.754815 
L 252.575117 292.731947 
L 256.222921 292.708627 
L 259.870725 292.684784 
L 263.518529 292.66034 
L 267.166333 292.635211 
L 270.814137 292.609308 
L 274.461941 292.58253 
L 278.109745 292.554768 
L 281.757549 292.525901 
L 285.405352 292.495794 
L 289.053156 292.464295 
L 292.70096 292.431235 
L 296.348764 292.39642 
L 299.996568 292.35963 
L 303.644372 292.320612 
L 307.292176 292.279077 
L 310.93998 292.234684 
L 314.587783 292.187041 
L 318.235587 292.135681 
L 321.883391 292.080052 
L 325.531195 292.019493 
L 329.178999 291.953206 
L 332.826803 291.88022 
L 336.474607 291.799334 
L 340.122411 291.709053 
L 343.770215 291.607488 
L 347.418018 291.492212 
L 351.065822 291.360063 
L 354.713626 291.206832 
L 358.36143 291.026799 
L 362.009234 290.811979 
L 365.657038 290.550884 
L 369.304842 290.226357 
L 372.952646 289.811591 
L 376.600449 289.262221 
L 380.248253 288.499148 
L 383.896057 287.366247 
L 387.543861 285.506466 
L 391.191665 281.885206 
L 394.839469 271.732602 
L 398.487273 73.488849 
" style="fill:none;stroke:#1f77b4;stroke-linecap:square;stroke-width:1.5;"/>
   </g>
   <g id="line2d_12">
    <path clip-path="url(#p2d025047dc)" d="M 73.832727 274.180795 
L 77.480531 273.526489 
L 81.128335 274.920214 
L 84.776139 274.734029 
L 88.423943 274.335062 
L 92.071747 273.191357 
L 95.719551 274.228671 
L 99.367354 274.031847 
L 103.015158 274.457412 
L 106.662962 273.819065 
L 110.310766 274.734029 
L 113.95857 272.111486 
L 117.606374 272.595566 
L 121.254178 272.54237 
L 124.901982 274.494649 
L 128.549785 273.616921 
L 132.197589 275.297902 
L 135.845393 272.084888 
L 139.493197 272.526412 
L 143.141001 269.77088 
L 146.788805 273.563726 
L 150.436609 270.872028 
L 154.084413 274.058445 
L 157.732217 272.749833 
L 161.38002 271.638045 
L 165.027824 271.446541 
L 168.675628 274.297825 
L 172.323432 269.52618 
L 175.971236 270.983739 
L 179.61904 266.956832 
L 183.266844 271.313552 
L 186.914648 268.91975 
L 190.562451 268.717607 
L 194.210255 268.834637 
L 197.858059 268.339918 
L 201.505863 270.12729 
L 205.153667 265.382242 
L 208.801471 271.632726 
L 212.449275 267.776044 
L 216.097079 267.919673 
L 219.744883 267.504747 
L 223.392686 268.254805 
L 227.04049 266.270609 
L 230.688294 264.44068 
L 234.336098 265.866322 
L 237.983902 268.43035 
L 241.631706 262.98844 
L 245.27951 261.286181 
L 248.927314 253.498345 
L 252.575117 261.514922 
L 256.222921 256.269836 
L 259.870725 251.077945 
L 263.518529 255.541056 
L 267.166333 255.237841 
L 270.814137 257.79123 
L 274.461941 256.025136 
L 278.109745 253.221728 
L 281.757549 258.365743 
L 285.405352 256.610288 
L 289.053156 252.413155 
L 292.70096 249.428882 
L 296.348764 243.40182 
L 299.996568 247.721303 
M 307.292176 246.045642 
M 314.587783 241.9549 
L 318.235587 241.736798 
L 321.883391 228.400661 
L 325.531195 232.619072 
M 343.770215 214.043168 
" style="fill:none;stroke:#ff7f0e;stroke-linecap:square;stroke-width:1.5;"/>
   </g>
   <g id="line2d_13">
    <path clip-path="url(#p2d025047dc)" d="M 73.832727 257.722076 
L 77.480531 258.690236 
L 81.128335 257.291192 
L 84.776139 259.403057 
L 88.423943 257.413541 
L 92.071747 255.833632 
L 95.719551 258.988131 
L 99.367354 257.950817 
L 103.015158 260.270145 
L 106.662962 258.557247 
L 110.310766 258.509371 
L 113.95857 259.493489 
L 117.606374 257.871024 
L 121.254178 257.094368 
L 124.901982 257.679519 
L 128.549785 255.567654 
L 132.197589 254.881431 
L 135.845393 251.918436 
L 139.493197 253.918591 
L 143.141001 254.466505 
L 146.788805 256.083651 
L 150.436609 251.429036 
L 154.084413 253.450469 
L 157.732217 253.035544 
L 161.38002 247.966003 
L 165.027824 248.939482 
L 168.675628 245.205151 
L 172.323432 247.104234 
L 175.971236 248.923524 
L 179.61904 248.226661 
L 183.266844 242.582608 
L 186.914648 242.981575 
L 190.562451 246.832937 
L 194.210255 245.955209 
L 197.858059 247.141471 
L 201.505863 233.289337 
L 205.153667 232.927607 
L 208.801471 241.008018 
L 212.449275 248.529876 
L 216.097079 237.981189 
L 219.744883 231.879653 
L 223.392686 233.794695 
L 227.04049 230.267827 
L 230.688294 237.949271 
L 234.336098 229.751829 
L 237.983902 229.411377 
L 241.631706 226.161126 
L 245.27951 230.092281 
L 248.927314 223.93755 
L 252.575117 228.469815 
L 256.222921 216.793381 
L 259.870725 222.884277 
L 263.518529 220.820288 
L 267.166333 217.745582 
L 270.814137 220.150023 
L 274.461941 212.883504 
L 278.109745 215.133678 
L 281.757549 203.244461 
L 285.405352 216.511444 
L 289.053156 202.478445 
L 292.70096 192.371281 
L 296.348764 201.08472 
L 299.996568 199.99421 
L 303.644372 184.918577 
M 310.93998 175.497636 
M 321.883391 180.077777 
" style="fill:none;stroke:#2ca02c;stroke-linecap:square;stroke-width:1.5;"/>
   </g>
   <g id="line2d_14">
    <path clip-path="url(#p2d025047dc)" d="M 143.141001 53.568 
M 150.436609 104.699611 
M 157.732217 135.127495 
L 161.38002 142.170592 
L 165.027824 148.144458 
M 172.323432 173.385771 
L 175.971236 184.684516 
M 183.266844 184.15256 
L 186.914648 184.221715 
L 190.562451 208.255487 
L 194.210255 207.888437 
L 197.858059 213.239915 
L 201.505863 213.809108 
L 205.153667 223.059823 
L 208.801471 219.575511 
M 216.097079 224.54398 
L 219.744883 225.203605 
M 230.688294 245.008327 
M 237.983902 238.486547 
L 241.631706 242.960297 
M 252.575117 253.897312 
" style="fill:none;stroke:#d62728;stroke-linecap:square;stroke-width:1.5;"/>
   </g>
   <g id="patch_3">
    <path d="M 57.6 307.584 
L 57.6 41.472 
" style="fill:none;stroke:#000000;stroke-linecap:square;stroke-linejoin:miter;stroke-width:0.8;"/>
   </g>
   <g id="patch_4">
    <path d="M 414.72 307.584 
L 414.72 41.472 
" style="fill:none;stroke:#000000;stroke-linecap:square;stroke-linejoin:miter;stroke-width:0.8;"/>
   </g>
   <g id="patch_5">
    <path d="M 57.6 307.584 
L 414.72 307.584 
" style="fill:none;stroke:#000000;stroke-linecap:square;stroke-linejoin:miter;stroke-width:0.8;"/>
   </g>
   <g id="patch_6">
    <path d="M 57.6 41.472 
L 414.72 41.472 
" style="fill:none;stroke:#000000;stroke-linecap:square;stroke-linejoin:miter;stroke-width:0.8;"/>
   </g>
   <g id="text_13">
    <text style="font-family:DejaVu Sans;font-size:12px;font-style:normal;font-weight:normal;text-anchor:middle;" transform="rotate(-0, 236.16, 35.472)" x="236.16" y="35.472">Coin Flips for 2014 Add. x+0.1</text>
   </g>
   <g id="legend_1">
    <g id="patch_7">
     <path d="M 196.005937 108.1845 
L 407.72 108.1845 
Q 409.72 108.1845 409.72 106.1845 
L 409.72 48.472 
Q 409.72 46.472 407.72 46.472 
L 196.005937 46.472 
Q 194.005937 46.472 194.005937 48.472 
L 194.005937 106.1845 
Q 194.005937 108.1845 196.005937 108.1845 
z
" style="fill:#ffffff;opacity:0.8;stroke:#cccccc;stroke-linejoin:miter;"/>
    </g>
    <g id="line2d_15">
     <path d="M 198.005937 54.570438 
L 218.005937 54.570438 
" style="fill:none;stroke:#1f77b4;stroke-linecap:square;stroke-width:1.5;"/>
    </g>
    <g id="line2d_16"/>
    <g id="text_14">
     <text style="font-family:DejaVu Sans;font-size:10px;font-style:normal;font-weight:normal;text-anchor:start;" transform="rotate(-0, 226.005937, 58.070438)" x="226.005937" y="58.070438">Coin Flip Lower Bound</text>
    </g>
    <g id="line2d_17">
     <path d="M 198.005937 69.248563 
L 218.005937 69.248563 
" style="fill:none;stroke:#ff7f0e;stroke-linecap:square;stroke-width:1.5;"/>
    </g>
    <g id="line2d_18"/>
    <g id="text_15">
     <text style="font-family:DejaVu Sans;font-size:10px;font-style:normal;font-weight:normal;text-anchor:start;" transform="rotate(-0, 226.005937, 72.748563)" x="226.005937" y="72.748563">Avg. Coins Flipped 2014 Add. x+0.1</text>
    </g>
    <g id="line2d_19">
     <path d="M 198.005937 83.926688 
L 218.005937 83.926688 
" style="fill:none;stroke:#2ca02c;stroke-linecap:square;stroke-width:1.5;"/>
    </g>
    <g id="line2d_20"/>
    <g id="text_16">
     <text style="font-family:DejaVu Sans;font-size:10px;font-style:normal;font-weight:normal;text-anchor:start;" transform="rotate(-0, 226.005937, 87.426688)" x="226.005937" y="87.426688">Avg. Coins Flipped 2016 Add. x+0.1</text>
    </g>
    <g id="line2d_21">
     <path d="M 198.005937 98.604813 
L 218.005937 98.604813 
" style="fill:none;stroke:#d62728;stroke-linecap:square;stroke-width:1.5;"/>
    </g>
    <g id="line2d_22"/>
    <g id="text_17">
     <text style="font-family:DejaVu Sans;font-size:10px;font-style:normal;font-weight:normal;text-anchor:start;" transform="rotate(-0, 226.005937, 102.104813)" x="226.005937" y="102.104813">Avg. Coins Flipped 2019 Add. x+0.1</text>
    </g>
   </g>
  </g>
 </g>
 <defs>
  <clipPath id="p2d025047dc">
   <rect height="266.112" width="357.12" x="57.6" y="41.472"/>
  </clipPath>
 </defs>
</svg>

<svg height="460.8" viewBox="0 0 460.8 345.6" width="614.4" xmlns="http://www.w3.org/2000/svg" xmlns:xlink="http://www.w3.org/1999/xlink"><defs><style>*{stroke-linecap:butt;stroke-linejoin:round}</style></defs><g id="figure_1"><path d="M0 345.6h460.8V0H0z" fill="#fff" id="patch_1"/><g id="axes_1"><path d="M57.6 307.584h357.12V41.472H57.6z" fill="#fff" id="patch_2"/><g id="matplotlib.axis_1"><g id="xtick_1"><g id="line2d_1"><defs><path d="M0 0v3.5" id="m381461ad0d" stroke="#000" stroke-width=".8"/></defs><use x="73.797" xlink:href="#m381461ad0d" y="307.584" stroke="#000" stroke-width=".8"/></g><text x="73.797" y="322.182" font-family="DejaVu Sans" font-size="10" font-weight="400" text-anchor="middle" id="text_1">0.0</text></g><g id="xtick_2"><use x="146.038" xlink:href="#m381461ad0d" y="307.584" stroke="#000" stroke-width=".8" id="line2d_2"/><text x="146.038" y="322.182" font-family="DejaVu Sans" font-size="10" font-weight="400" text-anchor="middle" id="text_2">0.2</text></g><g id="xtick_3"><use x="218.279" xlink:href="#m381461ad0d" y="307.584" stroke="#000" stroke-width=".8" id="line2d_3"/><text x="218.279" y="322.182" font-family="DejaVu Sans" font-size="10" font-weight="400" text-anchor="middle" id="text_3">0.4</text></g><g id="xtick_4"><use x="290.52" xlink:href="#m381461ad0d" y="307.584" stroke="#000" stroke-width=".8" id="line2d_4"/><text x="290.52" y="322.182" font-family="DejaVu Sans" font-size="10" font-weight="400" text-anchor="middle" id="text_4">0.6</text></g><g id="xtick_5"><use x="362.76" xlink:href="#m381461ad0d" y="307.584" stroke="#000" stroke-width=".8" id="line2d_5"/><text x="362.76" y="322.182" font-family="DejaVu Sans" font-size="10" font-weight="400" text-anchor="middle" id="text_5">0.8</text></g><text x="236.16" y="335.861" font-family="DejaVu Sans" font-size="10" font-weight="400" text-anchor="middle" id="text_6">Input Coin&apos;s Heads Probability (λ)</text></g><g id="matplotlib.axis_2"><g id="ytick_1"><g id="line2d_6"><defs><path d="M0 0h-3.5" id="m06574b2284" stroke="#000" stroke-width=".8"/></defs><use x="57.6" xlink:href="#m06574b2284" y="295.491" stroke="#000" stroke-width=".8"/></g><text x="50.6" y="299.29" font-family="DejaVu Sans" font-size="10" font-weight="400" text-anchor="end" id="text_7">0</text></g><g id="ytick_2"><use x="57.6" xlink:href="#m06574b2284" y="242.295" stroke="#000" stroke-width=".8" id="line2d_7"/><text x="50.6" y="246.095" font-family="DejaVu Sans" font-size="10" font-weight="400" text-anchor="end" id="text_8">20</text></g><g id="ytick_3"><use x="57.6" xlink:href="#m06574b2284" y="189.1" stroke="#000" stroke-width=".8" id="line2d_8"/><text x="50.6" y="192.899" font-family="DejaVu Sans" font-size="10" font-weight="400" text-anchor="end" id="text_9">40</text></g><g id="ytick_4"><use x="57.6" xlink:href="#m06574b2284" y="135.904" stroke="#000" stroke-width=".8" id="line2d_9"/><text x="50.6" y="139.703" font-family="DejaVu Sans" font-size="10" font-weight="400" text-anchor="end" id="text_10">60</text></g><g id="ytick_5"><use x="57.6" xlink:href="#m06574b2284" y="82.709" stroke="#000" stroke-width=".8" id="line2d_10"/><text x="50.6" y="86.508" font-family="DejaVu Sans" font-size="10" font-weight="400" text-anchor="end" id="text_11">80</text></g><text transform="rotate(-90 31.795 174.528)" x="31.795" y="174.528" font-family="DejaVu Sans" font-size="10" font-weight="400" text-anchor="middle" id="text_12">Coin Flips Needed</text></g><path clip-path="url(#p2d025047dc)" d="M73.833 295.488l3.648-.27 3.647-.227 3.648-.191 3.648-.165 3.648-.143 3.648-.125 3.647-.111 3.648-.1 3.648-.089 3.648-.08 3.648-.074 3.647-.067 3.648-.062 3.648-.057 3.648-.053 3.648-.049 3.647-.046 3.648-.043 3.648-.04 3.648-.04 3.648-.036 3.647-.034 3.648-.033 3.648-.032 3.648-.03 3.648-.029 3.647-.028 3.648-.027 3.648-.026 3.648-.025 3.648-.025 3.647-.024 3.648-.023 3.648-.023 3.648-.023 3.648-.022 3.647-.022 3.648-.022 3.648-.022 3.648-.021 3.648-.022 3.647-.02 3.648-.022 3.648-.022 3.648-.022 3.648-.022 3.648-.022 3.647-.022 3.648-.023 3.648-.023 3.648-.024 3.648-.025 3.647-.025 3.648-.026 3.648-.026 3.648-.028 3.648-.03 3.647-.03 3.648-.03 3.648-.034 3.648-.035 3.648-.036 3.647-.04 3.648-.04 3.648-.045 3.648-.048 3.648-.051 3.647-.056 3.648-.06 3.648-.067 3.648-.073 3.648-.08 3.647-.09 3.648-.103 3.648-.115 3.648-.132 3.648-.153 3.647-.18 3.648-.215 3.648-.261 3.648-.325 3.648-.414 3.647-.55 3.648-.763 3.648-1.133 3.648-1.86 3.648-3.62 3.647-10.153 3.648-198.244" fill="none" stroke="#1f77b4" stroke-linecap="square" stroke-width="1.5" id="line2d_11"/><path clip-path="url(#p2d025047dc)" d="M73.833 274.18l3.648-.654 3.647 1.394 3.648-.186 3.648-.399 3.648-1.144 3.648 1.038 3.647-.197 3.648.425 3.648-.638 3.648.915 3.648-2.623 3.647.485 3.648-.054 3.648 1.953 3.648-.878 3.648 1.68 3.647-3.212 3.648.441 3.648-2.755 3.648 3.793 3.648-2.692 3.647 3.186 3.648-1.308 3.648-1.112 3.648-.191 3.648 2.85 3.647-4.77 3.648 1.457 3.648-4.027 3.648 4.357 3.648-2.394 3.647-.202 3.648.117 3.648-.495 3.648 1.787 3.648-4.745 3.647 6.25 3.648-3.856 3.648.144 3.648-.415 3.648.75 3.647-1.984 3.648-1.83 3.648 1.425 3.648 2.564 3.648-5.442 3.648-1.702 3.647-7.788 3.648 8.017 3.648-5.245 3.648-5.192 3.648 4.463 3.647-.303 3.648 2.553 3.648-1.766 3.648-2.803 3.648 5.144 3.647-1.756 3.648-4.197 3.648-2.984 3.648-6.027 3.648 4.32M314.588 241.954l3.648-.218 3.647-13.336 3.648 4.218m18.24-18.576" fill="none" stroke="#ff7f0e" stroke-linecap="square" stroke-width="1.5" id="line2d_12"/><path clip-path="url(#p2d025047dc)" d="M73.833 257.722l3.648.968 3.647-1.399 3.648 2.112 3.648-1.99 3.648-1.58 3.648 3.155 3.647-1.037 3.648 2.32 3.648-1.714 3.648-.048 3.648.984 3.647-1.622 3.648-.777 3.648.586 3.648-2.112 3.648-.687 3.647-2.963 3.648 2 3.648.549 3.648 1.617 3.648-4.655 3.647 2.021 3.648-.414 3.648-5.07 3.648.973 3.648-3.734 3.647 1.9 3.648 1.819 3.648-.697 3.648-5.644 3.648.399 3.647 3.85 3.648-.877 3.648 1.186 3.648-13.852 3.648-.361 3.647 8.08 3.648 7.522 3.648-10.549 3.648-6.101 3.648 1.915 3.647-3.527 3.648 7.681 3.648-8.197 3.648-.34 3.648-3.25 3.648 3.93 3.647-6.154 3.648 4.532 3.648-11.677 3.648 6.091 3.648-2.064 3.647-3.074 3.648 2.404 3.648-7.266 3.648 2.25 3.648-11.89 3.647 13.267 3.648-14.033 3.648-10.107 3.648 8.714 3.648-1.09 3.647-15.076M321.883 180.078" fill="none" stroke="#2ca02c" stroke-linecap="square" stroke-width="1.5" id="line2d_13"/><path clip-path="url(#p2d025047dc)" d="M157.73199999999997 135.12699999999998l3.648 7.044 3.648 5.973m7.295 25.242l3.648 11.299m7.296-.532l3.648.069 3.647 24.033 3.648-.367 3.648 5.352 3.648.57 3.648 9.25 3.647-3.484m7.296 4.968l3.648.66M237.984 238.487l3.648 4.473m10.943 10.937" fill="none" stroke="#d62728" stroke-linecap="square" stroke-width="1.5" id="line2d_14"/><path d="M57.6 307.584V41.472" fill="none" stroke="#000" stroke-linecap="square" stroke-width=".8" id="patch_3"/><path d="M414.72 307.584V41.472" fill="none" stroke="#000" stroke-linecap="square" stroke-width=".8" id="patch_4"/><path d="M57.6 307.584h357.12" fill="none" stroke="#000" stroke-linecap="square" stroke-width=".8" id="patch_5"/><path d="M57.6 41.472h357.12" fill="none" stroke="#000" stroke-linecap="square" stroke-width=".8" id="patch_6"/><text x="236.16" y="35.472" font-family="DejaVu Sans" font-size="12" font-weight="400" text-anchor="middle" id="text_13">Coin Flips for 2014 Add. x+0.1</text><g id="legend_1"><path d="M196.006 108.184H407.72q2 0 2-2V48.472q0-2-2-2H196.006q-2 0-2 2v57.712q0 2 2 2z" fill="#fff" opacity=".8" stroke="#ccc" id="patch_7"/><path d="M198.006 54.57h20" fill="none" stroke="#1f77b4" stroke-linecap="square" stroke-width="1.5" id="line2d_15"/><text x="226.006" y="58.07" font-family="DejaVu Sans" font-size="10" font-weight="400" id="text_14">Coin Flip Lower Bound</text><path d="M198.006 69.249h20" fill="none" stroke="#ff7f0e" stroke-linecap="square" stroke-width="1.5" id="line2d_17"/><text x="226.006" y="72.749" font-family="DejaVu Sans" font-size="10" font-weight="400" id="text_15">Avg. Coins Flipped 2014 Add. x+0.1</text><path d="M198.006 83.927h20" fill="none" stroke="#2ca02c" stroke-linecap="square" stroke-width="1.5" id="line2d_19"/><text x="226.006" y="87.427" font-family="DejaVu Sans" font-size="10" font-weight="400" id="text_16">Avg. Coins Flipped 2016 Add. x+0.1</text><path d="M198.006 98.605h20" fill="none" stroke="#d62728" stroke-linecap="square" stroke-width="1.5" id="line2d_21"/><text x="226.006" y="102.105" font-family="DejaVu Sans" font-size="10" font-weight="400" id="text_17">Avg. Coins Flipped 2019 Add. x+0.1</text></g></g></g><defs><clipPath id="p2d025047dc"><path d="M57.6 41.472h357.12v266.112H57.6z"/></clipPath></defs></svg>
